X:56
T:Wullafjord
R:reel
S:Sessions in Edinburgh
O:Shetland
Z:Nigel Gatherer
M:4/4
L:1/8
K:D
B2 | A2 FA- ADFA | B2 GB- BDGB | A2 FA- ADFA | EFGA   GFED |
     A2 FA- ADFA | B2 GB- BDGB | ABcd   efge | f2   d2  d2 :|
e2 | f2 df- ffdf | geaf   gfed | f2 df- fAdf | e2 ce- Aece |
     f2 df- ffdf | geaf   gfed | ABcd   efge | f2   d2  d2 :|
